X:97
T:T061C- Yellow Stockings (Actually Mad Moll)
S: Neals' Country Dances, Dublin, c 1726
Q:1/4=120
L:1/4
M:9/4
K:Gmixolydian
A|c3/2 d/ ecAAcAA|c3/2 d/ecAAB2G|c3/2 d/edAAcAA|\
B3/2 c/ddedB2G::c3/2 d/egeegee|c3/2d/egeef2d|\
c3/2d/egeegee|f2dd3/2e/dB2G:|]

